dist/svg/sauna-fill.svg

<svg xmlns="http://www.w3.org/2000/svg" viewBox="0 0 24 24"><path d="M11.486 3.125c-.301.05-.702.216-1.006.418-.178.118-1.128 1.043-3.003 2.925C4.839 9.114 4.727 9.232 4.57 9.54c-.33.648-.31.33-.31 4.9v4.06l.109.32c.151.445.362.783.695 1.116s.671.544 1.116.695l.32.109h11l.32-.109a2.74 2.74 0 0 0 1.116-.695c.333-.333.544-.671.695-1.116l.109-.32v-4.04c0-3.251-.011-4.083-.054-4.26a4 4 0 0 0-.234-.6l-.18-.38-2.746-2.752C14.653 4.59 13.697 3.66 13.52 3.543a2.8 2.8 0 0 0-2.034-.418m-1.122 5.741c.15.082.218.152.295.308.133.266.128.377-.037.742-.205.454-.267.729-.291 1.291-.026.606.047 1.083.258 1.693.527 1.526.585 1.794.586 2.72.001.548-.015.754-.084 1.06-.16.719-.415 1.259-.681 1.441-.118.081-.193.099-.41.099-.335 0-.516-.109-.661-.398-.131-.261-.125-.374.038-.737.243-.542.282-.749.28-1.485-.002-.613-.011-.691-.126-1.1a22 22 0 0 0-.326-1.02c-.248-.713-.364-1.272-.393-1.9-.057-1.222.365-2.533.888-2.764a.77.77 0 0 1 .664.05m4 0c.15.082.218.152.295.308.133.266.128.377-.037.742-.205.454-.267.729-.291 1.291-.026.606.047 1.083.258 1.693.527 1.526.585 1.794.586 2.72.001.548-.015.754-.084 1.06-.16.719-.415 1.259-.681 1.441-.118.081-.193.099-.41.099-.335 0-.516-.109-.661-.398-.131-.261-.125-.374.038-.737.243-.542.282-.749.28-1.485-.002-.613-.011-.691-.126-1.1a22 22 0 0 0-.326-1.02c-.248-.713-.364-1.272-.393-1.9-.057-1.222.365-2.533.888-2.764a.77.77 0 0 1 .664.05"/></svg>

<svg fill="none" xmlns="http://www.w3.org/2000/svg" viewBox="0 0 24 24"><path d="M11.486 3.125 C 11.185 3.175,10.784 3.341,10.480 3.543 C 10.302 3.661,9.352 4.586,7.477 6.468 C 4.839 9.114,4.727 9.232,4.570 9.540 C 4.240 10.188,4.260 9.870,4.260 14.440 L 4.260 18.500 4.369 18.820 C 4.520 19.265,4.731 19.603,5.064 19.936 C 5.397 20.269,5.735 20.480,6.180 20.631 L 6.500 20.740 12.000 20.740 L 17.500 20.740 17.820 20.631 C 18.265 20.480,18.603 20.269,18.936 19.936 C 19.269 19.603,19.480 19.265,19.631 18.820 L 19.740 18.500 19.740 14.460 C 19.740 11.209,19.729 10.377,19.686 10.200 C 19.657 10.079,19.551 9.809,19.452 9.600 L 19.272 9.220 16.526 6.468 C 14.653 4.590,13.697 3.660,13.520 3.543 C 12.923 3.148,12.219 3.003,11.486 3.125 M10.364 8.866 C 10.514 8.948,10.582 9.018,10.659 9.174 C 10.792 9.440,10.787 9.551,10.622 9.916 C 10.417 10.370,10.355 10.645,10.331 11.207 C 10.305 11.813,10.378 12.290,10.589 12.900 C 11.116 14.426,11.174 14.694,11.175 15.620 C 11.176 16.168,11.160 16.374,11.091 16.680 C 10.931 17.399,10.676 17.939,10.410 18.121 C 10.292 18.202,10.217 18.220,10.000 18.220 C 9.665 18.220,9.484 18.111,9.339 17.822 C 9.208 17.561,9.214 17.448,9.377 17.085 C 9.620 16.543,9.659 16.336,9.657 15.600 C 9.655 14.987,9.646 14.909,9.531 14.500 C 9.463 14.258,9.316 13.799,9.205 13.480 C 8.957 12.767,8.841 12.208,8.812 11.580 C 8.755 10.358,9.177 9.047,9.700 8.816 C 9.897 8.729,10.147 8.748,10.364 8.866 M14.364 8.866 C 14.514 8.948,14.582 9.018,14.659 9.174 C 14.792 9.440,14.787 9.551,14.622 9.916 C 14.417 10.370,14.355 10.645,14.331 11.207 C 14.305 11.813,14.378 12.290,14.589 12.900 C 15.116 14.426,15.174 14.694,15.175 15.620 C 15.176 16.168,15.160 16.374,15.091 16.680 C 14.931 17.399,14.676 17.939,14.410 18.121 C 14.292 18.202,14.217 18.220,14.000 18.220 C 13.665 18.220,13.484 18.111,13.339 17.822 C 13.208 17.561,13.214 17.448,13.377 17.085 C 13.620 16.543,13.659 16.336,13.657 15.600 C 13.655 14.987,13.646 14.909,13.531 14.500 C 13.463 14.258,13.316 13.799,13.205 13.480 C 12.957 12.767,12.841 12.208,12.812 11.580 C 12.755 10.358,13.177 9.047,13.700 8.816 C 13.897 8.729,14.147 8.748,14.364 8.866 " stroke="none" fill-rule="evenodd"/></svg>
